X: 141
T: Yin niusi
L: 1/8
M: 2/4
K: F
FF2G [I:setbarnb 1]| 
A B A G | 
F D A G | 
F4 | 
FF2G | 
A B A G | 
F D A G | 
F4 | 
D D F C | 
D4 | 
F D A G | 
F4 | 
c df2 | 
d f d c | 
AG2A | 
c d A G | 
F4 |]

@@@ Tune index: 9015
